packages/kaspersky-hexa-ui-icons/src/iconsSVGs/16/Harbor.svg

<svg width="16" height="16" viewBox="0 0 16 16" fill="none" xmlns="http://www.w3.org/2000/svg">
<path fill-rule="evenodd" clip-rule="evenodd" d="M8 15C11.866 15 15 11.866 15 8C15 4.13401 11.866 1 8 1C4.13401 1 1 4.13401 1 8C1 11.866 4.13401 15 8 15ZM8 13.8333C10.7857 13.8333 13.1153 11.8807 13.6948 9.26947L7.83843 6.97337L7.84168 6.97058C7.863 6.95211 7.88151 6.93042 8.27136 6.47368L8.27202 6.47291C8.68175 5.99288 9.50101 5.03305 11.1606 3.09625C10.2499 2.50806 9.1648 2.16667 8 2.16667C4.77834 2.16667 2.16667 4.77834 2.16667 8C2.16667 10.0764 3.25155 11.8994 4.88542 12.9332L5.33559 8.208H4.98008V7.56403H5.20638V6.24092H4.98008V5.83545L6.22836 4.63572V4.5504C6.22836 4.48889 6.2782 4.43905 6.33972 4.43905C6.40121 4.43905 6.45106 4.48889 6.45106 4.5504V4.63569L7.69936 5.83545V6.24092H7.47303V7.56403H7.69936V8.208H7.33966L7.85282 13.8315C7.90173 13.8327 7.9508 13.8333 8 13.8333ZM12.9766 4.88155L7.84075 6.97382L13.7597 6.849C13.6188 6.13852 13.3493 5.4743 12.9766 4.88155ZM5.88596 7.01297V7.57254H6.715V7.01297C6.715 6.78403 6.5294 6.59845 6.3005 6.59845C6.07157 6.59845 5.88596 6.78403 5.88596 7.01297Z" fill="black"/>
</svg>

<svg xmlns="http://www.w3.org/2000/svg" width="16" height="16" fill="none" viewBox="0 0 16 16"><path fill="#000" fill-rule="evenodd" d="M8 15c3.866 0 7-3.134 7-7s-3.134-7-7-7-7 3.134-7 7 3.134 7 7 7m0-1.1667c2.7857 0 5.1153-1.9526 5.6948-4.5638L7.8384 6.9734l.0033-.0028c.0213-.0185.0398-.0402.4297-.497l.0006-.0007c.4097-.48 1.229-1.4398 2.8886-3.3766C10.2499 2.508 9.1648 2.1666 8 2.1666 4.7783 2.1667 2.1667 4.7783 2.1667 8c0 2.0764 1.0848 3.8994 2.7187 4.9332l.4502-4.7252H4.98v-.644h.2263V6.241H4.98v-.4055l1.2483-1.1998v-.0853a.1113.1113 0 1 1 .2227 0v.0853l1.2483 1.1997v.4055H7.473V7.564h.2264v.644h-.3597l.5131 5.6235q.0735.0018.1472.0018m4.9766-8.9517L7.8408 6.9737l5.9189-.1248a5.82 5.82 0 0 0-.7831-1.9675M5.886 7.013v.5595h.829V7.013a.4145.4145 0 1 0-.829 0" clip-rule="evenodd"/></svg>
